assets/img/pricing_table/transfer.svg

<?xml version="1.0" encoding="UTF-8"?>
<svg width="50px" height="50px" viewBox="0 0 50 50" version="1.1" xmlns="http://www.w3.org/2000/svg" xmlns:xlink="http://www.w3.org/1999/xlink">
    <!-- Generator: Sketch 48.2 (47327) - http://www.bohemiancoding.com/sketch -->
    <title>Transfer</title>
    <desc>Created with Sketch.</desc>
    <defs></defs>
    <g id="Desktop---Version-2-Copy" stroke="none" stroke-width="1" fill="none" fill-rule="evenodd" transform="translate(-155.000000, -4760.000000)">
        <g id="Pricing-section" transform="translate(0.000000, 4371.000000)">
            <g id="Cards" transform="translate(137.000000, 184.000000)">
                <g id="Early-Bird">
                    <g id="Text" transform="translate(19.000000, 144.000000)">
                        <g id="Transports" transform="translate(0.000000, 60.000000)">
                            <g id="Transfer" transform="translate(0.000000, 2.000000)">
                                <path d="M12,13.4892972 L12,37.1578947 L15.9988141,37.1578947 C15.9988141,36.2386578 15.9845835,35.3053867 15.9845835,34.3861497 C21.3210792,34.231774 26.6789208,34.231774 32.0154165,34.3861497 C32.0154165,35.3053867 32.0011859,36.2386578 32.0011859,37.1578947 L36,37.1578947 L36,13.4892972 C28.4008301,9.95970795 19.6062852,9.95970795 12,13.4892972 Z M14.6682479,15.222515 C17.2155351,14.2260902 19.9335903,13.6436729 22.6658761,13.5103484 L22.6658761,21.3764907 L14.6682479,21.3764907 L14.6682479,15.222515 Z M16.6676549,30.5828945 C15.5576638,30.5828945 14.6682479,29.6987429 14.6682479,28.6110961 C14.6682479,27.5164322 15.5647791,26.6392977 16.6676549,26.6392977 C17.7705307,26.6392977 18.667062,27.5234493 18.667062,28.6110961 C18.667062,29.6987429 17.777646,30.5828945 16.6676549,30.5828945 Z M26.6718055,31.8950877 L21.3353098,31.8950877 L21.3353098,29.2636842 L26.6718055,29.2636842 L26.6718055,31.8950877 Z M26.6718055,26.6392977 L21.3353098,26.6392977 L21.3353098,24.0078942 L26.6718055,24.0078942 L26.6718055,26.6392977 Z M31.3394604,30.5828945 C30.2294693,30.5828945 29.3400534,29.6987429 29.3400534,28.6110961 C29.3400534,27.5164322 30.2365846,26.6392977 31.3394604,26.6392977 C32.4423362,26.6392977 33.3388675,27.5234493 33.3388675,28.6110961 C33.3388675,29.6987429 32.4423362,30.5828945 31.3394604,30.5828945 Z M33.3388675,21.3764907 L25.3341239,21.3764907 L25.3341239,13.5103484 C28.0664097,13.6436729 30.7844649,14.2190731 33.3317521,15.222515 L33.3317521,21.3764907 L33.3388675,21.3764907 Z" id="Bus-icon" fill="#AE8A61" fill-rule="nonzero"></path>
                                <path d="M24,0.315789474 C10.7519349,0.315789474 0,10.9263158 0,24 C0,37.073797 10.7519349,47.6842105 24,47.6842105 C37.2480651,47.6842105 48,37.073797 48,24 C48,10.9263158 37.2480651,0.315789474 24,0.315789474 Z" id="Path-Copy" stroke="#AE8A61" stroke-width="1.83272735" stroke-linecap="square"></path>
                            </g>
                        </g>
                    </g>
                </g>
            </g>
        </g>
    </g>
</svg>

<svg width="50" height="50" viewBox="0 0 50 50" xmlns="http://www.w3.org/2000/svg"><title>Transfer</title><g transform="translate(1 1)" fill="none" fill-rule="evenodd"><path d="M12 13.49v23.668h3.999c0-.92-.014-1.853-.014-2.772a277.506 277.506 0 0 1 16.03 0c0 .92-.014 1.853-.014 2.772H36V13.489a28.522 28.522 0 0 0-24 0zm2.668 1.733a25.426 25.426 0 0 1 7.998-1.713v7.866h-7.998v-6.153zm2 15.36c-1.11 0-2-.884-2-1.972 0-1.095.897-1.972 2-1.972s2 .884 2 1.972-.89 1.972-2 1.972zm10.004 1.312h-5.337v-2.631h5.337v2.631zm0-5.256h-5.337v-2.631h5.337v2.631zm4.667 3.944c-1.11 0-1.999-.884-1.999-1.972 0-1.095.897-1.972 2-1.972 1.102 0 1.999.884 1.999 1.972s-.897 1.972-2 1.972zm2-9.207h-8.005V13.51c2.732.134 5.45.71 7.998 1.713v6.153h.007z" fill="#AE8A61" fill-rule="nonzero"/><path d="M24 .316C10.752.316 0 10.926 0 24c0 13.074 10.752 23.684 24 23.684S48 37.074 48 24C48 10.926 37.248.316 24 .316z" stroke="#AE8A61" stroke-width="1.833" stroke-linecap="square"/></g></svg>
